svg/furkot/mapbox-maki/parking_garage.svg

<svg viewBox="0 0 512 512" xmlns="http://www.w3.org/2000/svg"><path d="m366.89 362.472c-24.348 17.565-54.043 26.124-84.007 24.213h-69.7v117.389h-69.701v-330.159h143.804c28.616-1.519 56.801 7.487 79.238 25.312 21.2 20.525 32.098 49.462 29.713 78.871 3.823 31.153-7.013 62.32-29.347 84.374zm-55.027-118.857c-10.601-7.773-23.555-11.658-36.684-11.005h-61.996v97.213h61.996c13.25.701 26.303-3.474 36.684-11.739 9.388-9.812 14.187-23.14 13.206-36.684 1.732-13.966-3.154-27.938-13.206-37.785zm198.464-98.682c4.182-9.119.256-19.908-8.805-24.211l-244.685-113.722-246.153 113.722c-9.218 4.255-13.243 15.176-8.988 24.395 4.256 9.219 15.177 13.243 24.396 8.988l230.745-106.752 230.745 106.385c9.119 4.182 19.909.256 24.211-8.805z"/></svg>

<svg viewBox="0 0 512 512" xmlns="http://www.w3.org/2000/svg"><path d="M 366.89 362.472 C 342.542 380.037 312.847 388.596 282.883 386.685 L 213.183 386.685 L 213.183 504.074 L 143.482 504.074 L 143.482 173.915 L 287.286 173.915 C 315.902 172.396 344.087 181.402 366.524 199.227 C 387.724 219.752 398.622 248.689 396.237 278.098 C 400.06 309.251 389.224 340.418 366.89 362.472 Z M 311.863 243.615 C 301.262 235.842 288.308 231.957 275.179 232.61 L 213.183 232.61 L 213.183 329.823 L 275.179 329.823 C 288.429 330.524 301.482 326.349 311.863 318.084 C 321.251 308.272 326.05 294.944 325.069 281.4 C 326.801 267.434 321.915 253.462 311.863 243.615 Z M 510.327 144.933 C 514.509 135.814 510.583 125.025 501.522 120.722 L 256.837 7 L 10.684 120.722 C 1.466 124.977 -2.559 135.898 1.696 145.117 C 5.952 154.336 16.873 158.36 26.092 154.105 L 26.092 154.105 L 256.837 47.353 L 487.582 153.738 C 496.701 157.92 507.491 153.994 511.793 144.933 L 510.327 144.933 Z"/></svg>
